src/Components/Object/images/timer.svg

<svg width="47" height="47" viewBox="0 0 47 47" fill="none" xmlns="http://www.w3.org/2000/svg">
<path d="M46.4166 9.10853L35.875 0.262695L32.9187 3.76895L43.4604 12.6148L46.4166 9.10853ZM14.0583 3.76895L11.125 0.262695L0.583313 9.08561L3.53956 12.5919L14.0583 3.76895ZM23.5 5.16686C12.1104 5.16686 2.87498 14.4023 2.87498 25.7919C2.87498 37.1814 12.0875 46.4169 23.5 46.4169C34.8896 46.4169 44.125 37.1814 44.125 25.7919C44.125 14.4023 34.8896 5.16686 23.5 5.16686ZM23.5 41.8335C14.6312 41.8335 7.45831 34.6606 7.45831 25.7919C7.45831 16.9231 14.6312 9.75019 23.5 9.75019C32.3687 9.75019 39.5416 16.9231 39.5416 25.7919C39.5416 34.6606 32.3687 41.8335 23.5 41.8335ZM20.1541 29.2981L15.2729 24.4169L12.8437 26.846L20.1312 34.1335L33.8812 20.3835L31.4521 17.9544L20.1541 29.2981Z" fill="#BCBCBC"/>
</svg>

<svg width="47" height="47" fill="none" xmlns="http://www.w3.org/2000/svg"><path d="M46.417 9.109 35.875.263l-2.956 3.506 10.541 8.846 2.957-3.506Zm-32.359-5.34L11.125.263.583 9.086l2.957 3.506 10.518-8.823ZM23.5 5.167c-11.39 0-20.625 9.235-20.625 20.625S12.088 46.417 23.5 46.417c11.39 0 20.625-9.236 20.625-20.625 0-11.39-9.235-20.625-20.625-20.625Zm0 36.666c-8.869 0-16.042-7.172-16.042-16.041S14.631 9.75 23.5 9.75c8.869 0 16.042 7.173 16.042 16.042 0 8.869-7.173 16.041-16.042 16.041Zm-3.346-12.535-4.881-4.881-2.43 2.429 7.288 7.287 13.75-13.75-2.429-2.429-11.298 11.344Z" fill="#BCBCBC"/></svg>
